flaticon/household/television-2.svg

<svg xmlns="http://www.w3.org/2000/svg" width="32" height="32" viewBox="0 0 24 24">
    <path d="M 23.390625 13.421875 L 14.367188 13.421875 C 14.410156 13.296875 14.441406 13.160156 14.441406 13.015625 C 14.441406 12.34375 13.894531 11.796875 13.21875 11.796875 L 12.40625 11.796875 L 12.40625 10.984375 L 21.761719 10.984375 L 21.761719 0 L 2.238281 0 L 2.238281 10.984375 L 11.59375 10.984375 L 11.59375 11.796875 L 10.78125 11.796875 C 10.105469 11.796875 9.558594 12.34375 9.558594 13.015625 C 9.558594 13.160156 9.589844 13.296875 9.632812 13.421875 L 0.609375 13.421875 L 0.609375 20.746094 L 1.78125 20.746094 C 1.695312 21.042969 1.671875 21.335938 1.734375 21.632812 C 1.847656 22.214844 1.671875 22.707031 1.152344 23.285156 L 1.121094 23.320312 C 1.011719 23.441406 0.988281 23.613281 1.050781 23.757812 C 1.117188 23.90625 1.261719 24 1.421875 24 L 1.691406 24 C 2.328125 24 2.917969 23.738281 3.390625 23.238281 C 3.867188 22.738281 4.183594 22.023438 4.160156 21.503906 C 4.144531 21.226562 4.199219 20.980469 4.3125 20.746094 L 19.6875 20.746094 C 19.800781 20.980469 19.855469 21.230469 19.839844 21.503906 C 19.816406 22.023438 20.132812 22.738281 20.609375 23.238281 C 21.082031 23.738281 21.671875 24 22.308594 24 L 22.578125 24 C 22.738281 24 22.882812 23.90625 22.949219 23.757812 C 23.011719 23.613281 22.984375 23.441406 22.878906 23.320312 L 22.847656 23.285156 C 22.328125 22.707031 22.152344 22.214844 22.273438 21.601562 C 22.328125 21.324219 22.304688 21.039062 22.222656 20.746094 L 23.390625 20.746094 Z M 3.050781 2.035156 L 20.949219 2.035156 L 20.949219 8.949219 L 3.050781 8.949219 Z M 20.949219 0.8125 L 20.949219 1.21875 L 3.050781 1.21875 L 3.050781 0.8125 Z M 3.050781 9.761719 L 20.949219 9.761719 L 20.949219 10.167969 L 3.050781 10.167969 Z M 10.371094 13.015625 C 10.371094 12.792969 10.554688 12.609375 10.78125 12.609375 L 13.21875 12.609375 C 13.445312 12.609375 13.628906 12.792969 13.628906 13.015625 C 13.628906 13.242188 13.445312 13.421875 13.21875 13.421875 L 10.78125 13.421875 C 10.554688 13.421875 10.371094 13.242188 10.371094 13.015625 Z M 3.347656 21.542969 C 3.355469 21.757812 3.191406 22.269531 2.804688 22.675781 C 2.683594 22.800781 2.519531 22.941406 2.3125 23.042969 C 2.570312 22.535156 2.636719 22.015625 2.523438 21.441406 C 2.480469 21.226562 2.519531 20.996094 2.636719 20.746094 L 3.4375 20.746094 C 3.363281 21 3.332031 21.265625 3.347656 21.542969 Z M 21.46875 21.476562 C 21.359375 22.027344 21.429688 22.539062 21.6875 23.042969 C 21.480469 22.941406 21.316406 22.800781 21.195312 22.675781 C 20.808594 22.269531 20.644531 21.757812 20.652344 21.542969 C 20.667969 21.265625 20.636719 21 20.5625 20.746094 L 21.359375 20.746094 C 21.480469 21 21.515625 21.234375 21.46875 21.476562 Z M 22.578125 19.933594 L 1.421875 19.933594 L 1.421875 14.238281 L 22.578125 14.238281 Z M 22.578125 19.933594"/>
    <path d="M 2.238281 19.117188 L 21.761719 19.117188 L 21.761719 15.050781 L 2.238281 15.050781 Z M 20.949219 15.863281 L 20.949219 18.304688 L 14.847656 18.304688 L 14.847656 15.863281 Z M 3.050781 15.863281 L 14.035156 15.863281 L 14.035156 18.304688 L 3.050781 18.304688 Z M 3.050781 15.863281"/>
</svg>

<svg xmlns="http://www.w3.org/2000/svg" width="32" height="32" viewBox="0 0 24 24">
    <path d="M23.39 13.422h-9.023a1.25 1.25 0 0 0 .074-.406c0-.672-.546-1.22-1.222-1.22h-.813v-.812h9.356V0H2.238v10.984h9.356v.813h-.813c-.676 0-1.222.547-1.222 1.219 0 .144.03.28.074.406H.609v7.324h1.172a1.8 1.8 0 0 0-.047.887c.114.582-.062 1.074-.582 1.652l-.03.035a.406.406 0 1 0 .3.68h.27c.636 0 1.226-.262 1.699-.762.476-.5.793-1.215.77-1.734-.016-.277.038-.524.152-.758h15.375c.113.234.167.484.152.758-.024.52.293 1.234.77 1.734.472.5 1.062.762 1.699.762h.27a.406.406 0 0 0 .3-.68l-.031-.035c-.52-.578-.696-1.07-.575-1.683a1.83 1.83 0 0 0-.05-.856h1.168zM3.05 2.035h17.9V8.95H3.05zM20.95.812v.407H3.05V.812zm-17.9 8.95h17.9v.406H3.05zm7.321 3.254a.41.41 0 0 1 .41-.407h2.438a.407.407 0 0 1 0 .813H10.78a.407.407 0 0 1-.41-.406zm-7.023 8.527c.007.215-.157.727-.543 1.133a1.796 1.796 0 0 1-.493.367 2.38 2.38 0 0 0 .211-1.602c-.043-.214-.003-.445.114-.695h.8a2.35 2.35 0 0 0-.09.797zm18.12-.066c-.109.55-.038 1.062.22 1.566a1.796 1.796 0 0 1-.493-.367c-.386-.406-.55-.918-.543-1.133a2.35 2.35 0 0 0-.09-.797h.797c.121.254.157.488.11.73zm1.11-1.543H1.422v-5.696h21.156zm0 0"/>
    <path d="M2.238 19.117h19.524v-4.066H2.238zm18.711-3.254v2.442h-6.101v-2.442zm-17.898 0h10.984v2.442H3.051zm0 0"/>
</svg>
